images/slider2/cl-4.svg

<svg width="131" height="106" viewBox="0 0 131 106" fill="none" xmlns="http://www.w3.org/2000/svg">
<g clip-path="url(#clip0)">
<path d="M81.7736 45.2705C77.816 45.2705 74.1683 48.0449 74.1683 51.9983C74.1683 56.2291 77.36 59.2116 81.7736 59.2116C86.1875 59.2116 89.3792 56.2293 89.3792 51.9983C89.3792 48.0449 85.7315 45.2705 81.7736 45.2705ZM81.7736 55.9171C79.6399 55.9171 77.889 54.2698 77.889 52.0156C77.889 50.2124 79.6399 48.565 81.7736 48.565C83.9076 48.565 85.6585 50.2122 85.6585 52.0156C85.6585 54.2698 83.9076 55.9171 81.7736 55.9171Z" fill="#153053" fill-opacity="0.6"/>
<path d="M109.198 55.4522L65.2497 90.4177L21.3008 55.4522C19.7444 54.181 17.3502 53.9134 15.6161 53.9134H0.255432L65.1152 105.793L130.247 53.9134H114.883C113.149 53.9134 110.755 54.181 109.198 55.4522ZM65.1162 104.974L2.07955 54.553H15.6161C17.2456 54.553 19.4849 54.7955 20.8983 55.9498L65.2495 91.2355L109.598 55.9524C111.014 54.7955 113.254 54.553 114.883 54.553H128.417L65.1162 104.974ZM21.3008 50.341L65.2497 15.3755L109.199 50.3409C110.755 51.6123 113.149 51.8797 114.883 51.8797H130.247L65.1152 0L0.255432 51.8799H15.6161C17.35 51.8799 19.7444 51.6123 21.3008 50.341ZM65.1162 0.818828L128.417 51.2403H114.883C113.254 51.2403 111.014 50.998 109.601 49.8435L65.2497 14.5578L20.9014 49.8407C19.4849 50.9978 17.2457 51.2401 15.6161 51.2401H2.07955L65.1162 0.818828Z" fill="#153053" fill-opacity="0.6"/>
<path d="M36.1721 48.6864C37.3394 48.6864 38.6714 48.872 39.2543 49.5368V45.9987C38.0688 45.6519 37.2116 45.3919 36.099 45.3919C34.2024 45.3918 32.3696 46.0752 30.9375 47.3165C29.4237 48.617 28.7308 50.3164 28.7308 52.2584C28.7308 54.2004 29.4237 55.8998 30.9375 57.2003C32.3695 58.4417 34.2024 59.1252 36.099 59.1249C37.2116 59.1249 38.0688 58.8648 39.2543 58.5179V54.9799C38.6713 55.6447 37.3394 55.8304 36.1721 55.8304C33.9471 55.8304 32.4515 54.3391 32.4515 52.2758C32.4515 50.2124 33.9471 48.6864 36.1721 48.6864ZM40.5703 45.7039V58.7781H47.6243V55.8998H44.1449V45.7039H40.5703ZM54.95 45.2705C50.9923 45.2705 47.3446 48.0449 47.3446 51.9983C47.3446 56.2291 50.5363 59.2116 54.95 59.2116C59.3638 59.2116 62.5554 56.2293 62.5554 51.9983C62.5554 48.0449 58.9078 45.2705 54.95 45.2705ZM54.95 55.9171C52.8162 55.9171 51.0653 54.2698 51.0653 52.0156C51.0653 50.2124 52.8162 48.565 54.95 48.565C57.084 48.565 58.8349 50.2122 58.8349 52.0156C58.8349 54.2698 57.084 55.9171 54.95 55.9171ZM94.7228 54.5124L97.6044 58.7781H101.909L96.8202 51.7903L101.216 45.7039H96.8202L94.7228 49.0853L92.6252 45.7039H88.2296L92.6252 51.7903L87.2449 58.7781H91.5671L94.7228 54.5124ZM71.1487 53.2408C72.6584 52.6968 73.4684 51.3048 73.4684 49.7268C73.4684 46.935 71.4074 45.7039 68.69 45.7039H63.346V58.7781H66.9208V53.7495H67.4862L70.9363 58.7781H74.9161L71.1487 53.2408ZM67.2669 51.5649H66.9206V48.3051H67.2669C68.4344 48.3051 69.7475 48.5132 69.7475 49.9351C69.7475 51.357 68.4344 51.5649 67.2669 51.5649Z" fill="#153053" fill-opacity="0.6"/>
</g>
<defs>
<clipPath id="clip0">
<rect x="0.25" width="130" height="105.793" fill="white"/>
</clipPath>
</defs>
</svg>

<svg width="131" height="106" fill="none" xmlns="http://www.w3.org/2000/svg"><g clip-path="url(#clip0)" fill="#153053" fill-opacity=".6"><path d="M81.774 45.27c-3.958 0-7.606 2.775-7.606 6.728 0 4.231 3.192 7.214 7.606 7.214 4.413 0 7.605-2.983 7.605-7.214 0-3.953-3.648-6.727-7.605-6.727zm0 10.647c-2.134 0-3.885-1.647-3.885-3.901 0-1.804 1.75-3.451 3.885-3.451 2.134 0 3.885 1.647 3.885 3.45 0 2.255-1.751 3.902-3.885 3.902z"/><path d="M109.198 55.452L65.25 90.418 21.3 55.452c-1.556-1.271-3.95-1.539-5.684-1.539H.256l64.86 51.88 65.131-51.88h-15.364c-1.734 0-4.128.268-5.685 1.54zm-44.082 49.522L2.08 54.553h13.536c1.63 0 3.869.242 5.282 1.397L65.25 91.235l44.348-35.283c1.416-1.157 3.656-1.399 5.285-1.399h13.534l-63.3 50.421zM21.301 50.341L65.25 15.376l43.949 34.965c1.556 1.271 3.95 1.539 5.684 1.539h15.364L65.115 0 .255 51.88h15.361c1.734 0 4.128-.268 5.685-1.539zM65.116.819l63.301 50.421h-13.534c-1.629 0-3.869-.242-5.282-1.397L65.25 14.559 20.9 49.84c-1.416 1.157-3.655 1.4-5.285 1.4H2.08L65.116.818z"/><path d="M36.172 48.686c1.167 0 2.5.186 3.082.85V46c-1.185-.347-2.042-.607-3.155-.607a7.88 7.88 0 0 0-5.161 1.924c-1.514 1.301-2.207 3-2.207 4.942 0 1.942.693 3.642 2.206 4.942a7.878 7.878 0 0 0 5.162 1.925c1.113 0 1.97-.26 3.155-.607V54.98c-.583.665-1.915.85-3.082.85-2.225 0-3.72-1.49-3.72-3.554s1.495-3.59 3.72-3.59zm4.398-2.982v13.074h7.054V55.9h-3.48V45.704H40.57zm14.38-.434c-3.958 0-7.605 2.775-7.605 6.728 0 4.231 3.191 7.214 7.605 7.214 4.414 0 7.605-2.983 7.605-7.214 0-3.953-3.647-6.727-7.605-6.727zm0 10.647c-2.134 0-3.885-1.647-3.885-3.901 0-1.804 1.751-3.451 3.885-3.451s3.885 1.647 3.885 3.45c0 2.255-1.751 3.902-3.885 3.902zm39.773-1.405l2.881 4.266h4.305L96.82 51.79l4.396-6.086H96.82l-2.097 3.381-2.098-3.381H88.23l4.395 6.086-5.38 6.988h4.322l3.156-4.266zm-23.574-1.271c1.51-.544 2.32-1.936 2.32-3.514 0-2.792-2.062-4.023-4.779-4.023h-5.344v13.074h3.575V53.75h.565l3.45 5.03h3.98l-3.766-5.54zm-3.882-1.676h-.346v-3.26h.346c1.167 0 2.48.208 2.48 1.63s-1.313 1.63-2.48 1.63z"/></g><defs><clipPath id="clip0"><path fill="#fff" d="M.25 0h130v105.793H.25z"/></clipPath></defs></svg>
